frontend/public/svg/Footer/Star.svg

<svg width="646" height="331" viewBox="0 0 646 331" fill="none" xmlns="http://www.w3.org/2000/svg">
<path d="M291.307 13.3919L338.384 36.881L392.674 0L417.721 32.5762L487.216 2.80278L487.785 41.2932L565.686 21.5205L541.729 62.169L620.395 54.3368L574.253 93.1674L646 98.0452L582.184 131.234L639.982 148.341L564.749 172.649L602.94 200.319L523.639 213.376L538.492 248.9L462.9 249.41L452.954 289.31L388.463 277.235L354.69 317.592L307.616 294.119L253.326 331L228.276 298.408L158.784 328.197L158.212 289.691L80.3111 309.464L104.267 268.815L25.6016 276.647L71.7471 237.833L0 232.955L63.8157 199.766L6.01511 182.643L81.248 158.335L43.0571 130.665L122.357 117.608L107.508 82.1002L183.097 81.5748L193.046 41.6901L257.537 53.765L291.307 13.3919Z" fill="#CBFF00"/>
</svg>

<?xml version="1.0" encoding="UTF-8"?>
<svg id="Layer_1" xmlns="http://www.w3.org/2000/svg" version="1.1" viewBox="0 0 646 331">
  <!-- Generator: Adobe Illustrator 29.8.2, SVG Export Plug-In . SVG Version: 2.1.1 Build 3)  -->
  <defs>
    <style>
      .st0 {
        fill: #dedc00;
      }
    </style>
  </defs>
  <path class="st0" d="M291.3,13.4l47.1,23.5L392.7,0l25,32.6L487.2,2.8l.6,38.5,77.9-19.8-24,40.6,78.7-7.8-46.1,38.8,71.7,4.9-63.8,33.2,57.8,17.1-75.2,24.3,38.2,27.7-79.3,13.1,14.9,35.5-75.6.5-9.9,39.9-64.5-12.1-33.8,40.4-47.1-23.5-54.3,36.9-25.1-32.6-69.5,29.8-.6-38.5-77.9,19.8,24-40.6-78.7,7.8,46.1-38.8L0,233l63.8-33.2-57.8-17.1,75.2-24.3-38.2-27.7,79.3-13.1-14.8-35.5,75.6-.5,9.9-39.9,64.5,12.1,33.8-40.4Z"/>
</svg>
